raw-svg/calendar-clock.svg

<svg fill="none" height="24" viewBox="0 0 24 24" width="24" xmlns="http://www.w3.org/2000/svg"><path clip-rule="evenodd" d="m9 2.25c.41421 0 .75.33579.75.75v1.25h4.5v-1.25c0-.41421.3358-.75.75-.75s.75.33579.75.75v1.25h1.25c1.5188 0 2.75 1.23122 2.75 2.75v3.5c0 .4142-.3358.75-.75.75h-13.25v6.75c0 .6904.55964 1.25 1.25 1.25h4c.4142 0 .75.3358.75.75s-.3358.75-.75.75h-4c-1.51878 0-2.75-1.2312-2.75-2.75v-11c0-1.51878 1.23122-2.75 2.75-2.75h1.25v-1.25c0-.41421.33579-.75.75-.75zm5.25 3.5v1.25c0 .41421.3358.75.75.75s.75-.33579.75-.75v-1.25h1.25c.6904 0 1.25.55964 1.25 1.25v2.75h-12.5v-2.75c0-.69036.55964-1.25 1.25-1.25h1.25v1.25c0 .41421.33579.75.75.75s.75-.33579.75-.75v-1.25zm2.5 8c-1.6569 0-3 1.3431-3 3s1.3431 3 3 3 3-1.3431 3-3-1.3431-3-3-3zm-4.5 3c0-2.4853 2.0147-4.5 4.5-4.5s4.5 2.0147 4.5 4.5-2.0147 4.5-4.5 4.5-4.5-2.0147-4.5-4.5zm5-1.25c0-.4142-.3358-.75-.75-.75s-.75.3358-.75.75v2c0 .4142.3358.75.75.75h1c.4142 0 .75-.3358.75-.75s-.3358-.75-.75-.75h-.25z" fill="#000" fill-rule="evenodd"/></svg>

<svg width="24" height="24" viewBox="0 0 24 24" fill="none" xmlns="http://www.w3.org/2000/svg">
<path fill-rule="evenodd" clip-rule="evenodd" d="M9 2.25C9.41421 2.25 9.75 2.58579 9.75 3V4.25H14.25V3C14.25 2.58579 14.5858 2.25 15 2.25C15.4142 2.25 15.75 2.58579 15.75 3V4.25H17C18.5188 4.25 19.75 5.48122 19.75 7V10.5C19.75 10.9142 19.4142 11.25 19 11.25H5.75V18C5.75 18.6904 6.30964 19.25 7 19.25H11C11.4142 19.25 11.75 19.5858 11.75 20C11.75 20.4142 11.4142 20.75 11 20.75H7C5.48122 20.75 4.25 19.5188 4.25 18V7C4.25 5.48122 5.48122 4.25 7 4.25H8.25V3C8.25 2.58579 8.58579 2.25 9 2.25ZM14.25 5.75V7C14.25 7.41421 14.5858 7.75 15 7.75C15.4142 7.75 15.75 7.41421 15.75 7V5.75H17C17.6904 5.75 18.25 6.30964 18.25 7V9.75H5.75V7C5.75 6.30964 6.30964 5.75 7 5.75H8.25V7C8.25 7.41421 8.58579 7.75 9 7.75C9.41421 7.75 9.75 7.41421 9.75 7V5.75H14.25ZM16.75 13.75C15.0931 13.75 13.75 15.0931 13.75 16.75C13.75 18.4069 15.0931 19.75 16.75 19.75C18.4069 19.75 19.75 18.4069 19.75 16.75C19.75 15.0931 18.4069 13.75 16.75 13.75ZM12.25 16.75C12.25 14.2647 14.2647 12.25 16.75 12.25C19.2353 12.25 21.25 14.2647 21.25 16.75C21.25 19.2353 19.2353 21.25 16.75 21.25C14.2647 21.25 12.25 19.2353 12.25 16.75ZM17.25 15.5C17.25 15.0858 16.9142 14.75 16.5 14.75C16.0858 14.75 15.75 15.0858 15.75 15.5V17.5C15.75 17.9142 16.0858 18.25 16.5 18.25H17.5C17.9142 18.25 18.25 17.9142 18.25 17.5C18.25 17.0858 17.9142 16.75 17.5 16.75H17.25V15.5Z" fill="black"/>
</svg>
